dist/assets/images/icons/socials/fb.svg

<svg width="40" height="40" viewBox="0 0 40 40" fill="none" xmlns="http://www.w3.org/2000/svg">
<path fill-rule="evenodd" clip-rule="evenodd" d="M20 0C8.95431 0 0 8.95431 0 20C0 31.0457 8.95431 40 20 40C31.0457 40 40 31.0457 40 20C40 8.95431 31.0457 0 20 0ZM20.8642 21.1037V29.6545L17.4229 29.6545V21.1038H14.5455V17.7715H17.423V15.3139C17.423 12.462 19.1648 10.9091 21.709 10.9091C22.9276 10.9091 23.975 10.9998 24.2803 11.0403V14.0207L22.5157 14.0215C21.1321 14.0215 20.8642 14.679 20.8642 15.6438V17.7714H24.164L23.7343 21.1037H20.8642Z" fill="#101112"/>
</svg>

<svg width="40" height="40" fill="none" xmlns="http://www.w3.org/2000/svg"><path fill-rule="evenodd" clip-rule="evenodd" d="M20 0C8.954 0 0 8.954 0 20s8.954 20 20 20 20-8.954 20-20S31.046 0 20 0zm.864 21.104v8.55h-3.441v-8.55h-2.877v-3.332h2.877v-2.458c0-2.852 1.742-4.405 4.286-4.405a23.5 23.5 0 012.571.131v2.98l-1.764.002c-1.384 0-1.652.657-1.652 1.622v2.127h3.3l-.43 3.333h-2.87z" fill="#101112"/></svg>
